X:1
T:Joy of Forgiveness
T:A. S. DeYoe, 1900
T:Joy of Forgiveness
T:Public Domain
T:Public Domain
C:A. S. DeYoe, 1900
Z:Public Domain
%%score ( 1 2 ) ( 3 4 )
L:1/8
M:4/4
K:F
V:1 treble 
V:2 treble 
V:3 bass 
V:4 bass 
V:1
 [FA][FB] | [Fc][Fd][Fc][FB] [FA]2 [CG]2 | [CF]2 [B,D]2 [A,C]2 [FA]2 x8 | [EG]2 F2 [EB]2 [FA]2 | %4
w: 1.~There is|glad- ness in my heart to-|day, to- day, A|peace I can- not|
w: 2.~There is|com- fort in my heart to-|day, to- day, A|joy that con- stant|
w: 3.~There is|sun- shine in my heart to-|day, to- day, A|light that sat- is-|
 [EG]6 [FA][FB] | [Fc][Fd][Fc][FB] [FA]2 [EG]2 | F2 [EG]2 [FA]2 [FB]2 | [FA]3 [CF] [CG]2 [CG]2 | %8
w: For the Spir-|it of the Lord now dwells|with- in, And with|soul ’tis well. There|
w: For the Com-|fort- er has come to keep|my soul, And love|glad- ness brings. There|
w: For my soul|has found a home in Christ|the Lord, And to|bo- som flies. There|
 [CF]6 [Fc][Fc] | [Fd]2 [FB]2 [DF]2 [Fd]2 | [Fc]3 [FA] [Fc]2 [Fc]2 | [Fd]2 [Ff]2 [Ge]2 [Fd]2 | %12
w: is glad- ness|in my heart to-|day, Which peace and|joy im- part, For|
w: is com- fort|in my heart to-|day, Which peace and|joy im- part, For|
w: is sun- shine|in my heart to-|day, Which peace and|joy im- part, For|
 [Ec]6 [FA][FB] | [Fc][Fd][Fc][FB] [FA]2 [EG]2 | F2 [EG]2 [FA]2 [FB]2 | [FA] [Fc]3 [EB]2 [EG]2 | %16
w: the Spir- it|of the Lord has come to|stay, There’s glad- ness|my heart. * *|
w: the Spir- it|of the Lord has come to|stay, There’s com- fort|my heart. * *|
w: the Spir- it|of the Lord has come to|stay, There’s sun- shine|my heart. * *|
 F6 |] %17
w: |
w: |
w: |
V:2
 x2 | x8 | x16 | x2 F2 x4 | x8 | x8 | F2 x6 | x8 | x8 | x8 | x8 | x8 | x8 | x8 | F2 x6 | x8 | F6 |] %17
w: |||tell,|||my||||||||in|||
w: |||springs,|||and||||||||in|||
w: |||fies;|||His||||||||in|||
V:3
 [F,C][F,G,] | [F,A,][F,B,][F,A,][B,,D] [C,C]2 [C,B,]2 | %2
 [F,A,]2 F,2 F,2 [F,C]2 [B,C]2 [A,C]2 [G,C]2 [F,C]2 | [C,C]6 [F,C][F,G,] | %4
 [F,A,][F,B,][F,A,][B,,D] [C,C]2 [C,B,]2 | [D,A,]2 [C,C]2 [F,C]2 [B,,D]2 | %6
 [C,C]3 [C,A,] [C,B,]2 [C,B,]2 | [F,A,]6 [F,A,][F,A,] | B,2 D2 B,2 B,2 | %9
 F,F,F,[F,C] [F,A,]2 [F,A,]2 | B,2 [A,C]2 [G,C]2 [G,=B,]2 | [C,C]6 [F,C][F,G,] | %12
 [F,A,][F,B,][F,A,][B,,D] [C,C]2 [C,B,]2 | [D,A,]2 [C,C]2 [F,C]2 [B,,D]2 | %14
 [C,C] [C,A,]3 [C,G,]2 [C,B,]2 | [F,A,]6 x2 | x6 |] %17
V:4
 x2 | x8 | x2 F,2 F,2 x10 | x8 | x8 | x8 | x8 | x8 | B,,4 B,,4 | A,3 x5 | =B,2 x6 | x8 | x8 | x8 | %14
 x8 | x8 | x6 |] %17

